src/assets/duotone/Bitcoin.svg

<svg width="24" height="24" viewBox="0 0 24 24"  xmlns="http://www.w3.org/2000/svg">
<path opacity="0.4" d="M12 22C17.5228 22 22 17.5228 22 12C22 6.47715 17.5228 2 12 2C6.47715 2 2 6.47715 2 12C2 17.5228 6.47715 22 12 22Z" />
<path d="M16.4898 11.61C16.8698 11.12 17.1098 10.5 17.1098 9.83C17.1098 8.28 15.7498 6.91 14.1898 6.91H13.3098V5.5C13.3098 5.09 12.9698 4.75 12.5598 4.75C12.1498 4.75 11.8098 5.09 11.8098 5.5V6.92H10.8298H10.5998V5.5C10.5998 5.09 10.2598 4.75 9.8498 4.75C9.4398 4.75 9.1198 5.09 9.1198 5.5V6.92H8.7798H7.0498C6.6398 6.92 6.2998 7.26 6.2998 7.67C6.2998 8.08 6.6398 8.42 7.0498 8.42H8.0298V12V15.58H7.0498C6.6398 15.58 6.2998 15.92 6.2998 16.33C6.2998 16.74 6.6398 17.08 7.0498 17.08H8.7798H9.1098V18.5C9.1098 18.91 9.4498 19.25 9.8598 19.25C10.2698 19.25 10.6098 18.91 10.6098 18.5V17.08H10.8398H11.8198V18.5C11.8198 18.91 12.1598 19.25 12.5698 19.25C12.9798 19.25 13.3198 18.91 13.3198 18.5V17.08H14.9698C16.7498 17.08 18.1998 15.77 18.1998 14.16C18.1998 13.06 17.4998 12.1 16.4898 11.61ZM10.8398 8.42H14.1998C14.9998 8.42 15.6198 9.18 15.6198 9.84C15.6198 10.62 14.9798 11.26 14.1998 11.26H9.5298V8.42H10.8398ZM14.9698 15.58H10.8398H9.5298V12.75H14.1998H14.9698C15.9198 12.75 16.6998 13.39 16.6998 14.17C16.6998 14.95 15.9198 15.58 14.9698 15.58Z" />
</svg>

<?xml version="1.0" encoding="UTF-8"?>
<svg width="24" height="24" viewBox="0 0 24 24" xmlns="http://www.w3.org/2000/svg">
 <path d="m12 22c5.5228 0 10-4.4772 10-10 0-5.5228-4.4772-10-10-10-5.5228 0-10 4.4772-10 10 0 5.5228 4.4772 10 10 10z" opacity=".4"/>
 <path d="m16.49 11.61c0.38-0.49 0.62-1.11 0.62-1.78 0-1.55-1.36-2.92-2.92-2.92h-0.88v-1.41c0-0.41-0.34-0.75-0.75-0.75s-0.75 0.34-0.75 0.75v1.42h-1.21v-1.42c0-0.41-0.34-0.75-0.75-0.75s-0.73 0.34-0.73 0.75v1.42h-2.07c-0.41 0-0.75 0.34-0.75 0.75s0.34 0.75 0.75 0.75h0.98v7.16h-0.98c-0.41 0-0.75 0.34-0.75 0.75s0.34 0.75 0.75 0.75h2.06v1.42c0 0.41 0.34 0.75 0.75 0.75s0.75-0.34 0.75-0.75v-1.42h1.21v1.42c0 0.41 0.34 0.75 0.75 0.75s0.75-0.34 0.75-0.75v-1.42h1.65c1.78 0 3.23-1.31 3.23-2.92 0-1.1-0.7-2.06-1.71-2.55zm-5.65-3.19h3.36c0.8 0 1.42 0.76 1.42 1.42 0 0.78-0.64 1.42-1.42 1.42h-4.67v-2.84h1.31zm4.13 7.16h-5.44v-2.83h5.44c0.95 0 1.73 0.64 1.73 1.42s-0.78 1.41-1.73 1.41z"/>
</svg>
